X:300
T:Lord, Who at Cana's Wedding Feast
%%stretchlast false
M:4/4
L:1/4
K:Eb clef=C1
"^I"[EBeg] [E,Geb] "^V7²"[F,Adb]/ "^vii°¹"[F,Ada]/ "^I¹"[G,Beg] | "^IV"[A,Ace] "^♯iii"[B,ABg] "^ii²"[CABf]/ "^V7¹"[DABf]/ "^I"[EGBe] | [E,EGB] "^IV"[A,EAc] "^vi"[CEGe] "^I¹"[G,EBe] | "^IV"[A,Ace]/ "^ii¹"[A,Acf]/ "^V"[B,FBd]3 | "^V7³"[A,Bdf] "^I¹"[G,Beb]3/2 "^V7²"[F,Bda]/ "^I"[E,Beg] | "^IV"[A,Ecc']/ "^vi7²"[G,Ecb]/ "^ii"[F,Fca]3/2 "^V/ii²"[G,=Ecg]/ "^ii¹"[A,Fcf] | "^V/vi"[G,D=Bg] "^vi"[CEce] [CEeg]/ [CFeg]/ "^iii²"[DGdb] | "^VII+"[D,_Gcb]/ "^VII7"[D,_Gc=a]/ "^iii"[G,GBg]3 | [Gdb]/ "^iii7³"[FGdb]/ "^I"[EGeb]3/2 [EGeb]/ "^IV²"[EAec'] | "^I"[EGeb] "^V¹"[DFfb]3/2 "^V7¹"[DBfa]/ "^I"[EBeg] | [EBeg] "^IV"[Ace] "^IVmaj7³"[GAce]/ [GAce]/ "^ii"[FAca] | "^IV²"[EAcc'] "^V¹"[DBf] "^ii²"[CABf] [B,GBf] | "^ii¹"[A,Fcf]/ [A,Fdf]/ "^I¹"[G,Eeb]3/2 [G,Eeb]/ "^IV"[A,Aec'] | "^VI7"[CG=eb] "^♯iii"[Ffa] "^V¹"[DFfb] "^I"[EBeg] | "^V7"[B,Adf] "^vi"[CGe]3/2 "^IV"[A,Ace]/ "^I²"[B,GBe] | "^V"[B,FBd] "^I"[E,GBe]3 |]
